X:1
T:Jingle bells
T:Jingle bells
C:Tato Barbosa
%%score [ 1 2 3 4 ]
L:1/8
M:2/4
K:G
V:1 treble nm="Violon1" snm="Vln.1"
V:2 treble nm="Violon2" snm="Vln.2"
V:3 treble nm="Violon3" snm="Vln.3"
V:4 bass nm="Violoncelle" snm="Cello"
V:1
"G" DB AG | D3 D | DB AG |"C" D3 D | Ec BA |"D7" FF FF | dd cA |"G" B3 D | DB AG | D3 D | DB AG | %11
w: Sur le long che|min Tout|blanc de nei ge|blanche un|vieux mon sieur sa|vance a vec sa|can ne dans la|main Et|tout là haut le|vent Qui|si ffle dans les|
"C" E3 E | Ec BA |"D" dd dd | ed cA |"G""D7" !fermata!G4 ||"G" BB B2 | BB B2 | Bd"C" GA |"G" B4 | %20
w: branches lui|souf fle la ro|man ce qu'il chan|tait pe tit en|fant|Vive le vent,|vive le vent|Vive le vent d'hi|ver|
"Am7" cc cc | c"G"B BB |"A7" BA AB |"D" A2"D7" d2 |"G" BB B2 | BB B2 | Bd"C" GA |"G" B4 | %28
w: Qui s'en va sif|flant, souf flant Dans|les grands sa pins|verts OH|Vive le temps,|vive le temps|Vive le temps d'hi|ver|
"Am7" cc cc | c"G"B BB |"D7" dd cA |"G" G4 |] %32
w: Boule de neige et|jour de l'an Et|bonne an née grand|mère|
V:2
 B,G FE | B,2 B,2 | B,G FE | C2 C2 | CA GF | D2 DB | cB AA | B4 | B,G FE | B,2 B,2 | B,G FE | %11
 C2 C2 | CA GF | A2 BB | cB AF | G4 || BB B2 | GG G2 | GB EF | G4 | AA AA | AG GG | GF FG | F2 A2 | %24
 GG G2 | GG G2 | GB EF | G4 | AA AA | AG GG | BB AF | G4 |] %32
V:3
 z4 | DB AG | D4 | CA GF | C4 | DC B,A, | D4 | GB ^FG | B,4 | DB AG | D4 | Ec BA | E2 E2 | DC B,D | %14
 ED CA, | G,4 || DD D2 | DD D2 | DG B,C | D4 | EE EE | ED DD | DC CD | D2 F2 | DD D2 | DD D2 | %26
 DG B,C | D4 | EE EE | ED DD | GG DC | B,4 |] %32
V:4
 G,,2 D,2 | G,,2 D,2 | G,,2 D,2 | C,,2 G,,2 | C,C B,A, | D,,2 A,,2 | D,,2 A,,2 | G,,2 D,2 | B,,4 | %9
 G,,2 D,2 | G,,2 D,2 | A,,4 | C,,2 G,,2 | C,A, G,B, | CB, A,F, | G,4 || G,4 | F,4 | E,4 | %19
 D,G,, A,,B,, | C,4 | B,,4 | A,,4 | D,2 C,2 | G,,2 B,,2 | G,,4 | G,,2 D,2 | G,,G,, A,,B,, | C,4 | %29
 G,,4 | D,2 F,2 | G,2 z2 |] %32

